X:9704
T:Liverpool Hornpipe
M:4/4
L:1/8
R:hornpipe
K:D
|:AG|FDFA dfaf|gfec dcBA|G2BG F2AF|EDEF GBAG|
FDFA dfaf|gfec dcBA|dfaf bgec|d2dcd2:|
|:(3ABc|d2fdc2ec|BABc dcBA|G2BGF2AF|EDEF GBAG|
FDFA dfaf|gfec dcBA|dfaf bgec|d2dcd2:|


